X:1
T:Turin, 77.77.77
T:Turin, 77.77.77
T:Felice de Giardini (1716-1796)
T:Public Domain Courtesy of the Cyber Hymnal™
C:Felice de Giardini (1716-1796)
Z:Public Domain
Z:Courtesy of the Cyber Hymnal™
%%score ( 1 2 ) ( 3 4 )
L:1/8
Q:1/4=105
M:4/4
K:E
V:1 treble 
V:2 treble 
V:3 bass 
V:4 bass 
V:1
 [EB]2 [EB]2 [EB]3 [EB] | (ce) (dc) [EB]4 | [DA]2 [EG]2 [Ec]3 [EB] | [FB]2 ([FA][EG]) [DF]4 | %4
 [DB]2 [EG]2 [DF]3 [FB] | [Ec]2 ([DB][C^A]) [DB]4 | [EB]2 [Ge]2 [FA]2 [EG]2 | [DF]2 E2 [DF]4 | %8
 [EG]2 [EA]2 [EB]3 [Ec] | [EB]2 [FA]2 ([FA]2 [EG]2) | [EG]2 [EA]2 [EB]3 [Ec] | [EG]2 [DF]2 E4 |] %12
V:2
 x8 | E2 E2 x4 | x8 | x8 | x8 | x8 | x8 | x2 E2 x4 | x8 | x8 | x8 | x4 E4 |] %12
V:3
 [E,G,]2 [E,G,]2 [E,G,]3 [E,G,] | (A,C) (B,A,) [E,G,]4 | [B,,F,]2 [C,E,]2 [A,,A,]3 [E,G,] | %3
 [D,B,]2 [E,B,]2 [B,,B,]4 | [B,,F,]2 [B,,B,]2 [B,,B,]3 [D,B,] | [E,G,]2 F,2 [B,,F,]4 | %6
 [B,,G,]2 [B,,B,]2 [B,,B,]2 [B,,B,]2 | [B,,B,]2 [B,,G,]2 [B,,F,]4 | [E,B,]2 [F,B,]2 [G,B,]3 A, | %9
 G,2 [D,B,]2 [E,B,]4 | [E,B,]2 [C,C]2 [G,,B,]3 [A,,E] | [B,,B,]2 (B,A,) [E,G,]4 |] %12
V:4
 x8 | E,2 E,2 x4 | x8 | x8 | x8 | x2 F,2 x4 | x8 | x8 | x7 A, | G,2 x6 | x8 | x2 B,,2 x4 |] %12

